X:1
T:Turtle Dove
M:4/4
L:1/4
K:C
 z2 z E| E A A3/2 B/2| AG/2-E/2 D D| EE/2-D/2C/2-D/2 E| A2 A3/2 B/2|\
 c B A c| E E/2D/2 D D/2D/2| E3/2 E/2E/2-F/2 G|A/2-G/2^F/2-E/2 D D/2D/2|\
 E3/2 E/2 c B| A3 z|

